!!!!SEGMENT: pl-wumfc--n53446--001-021_moniuszko-stanislaw--hrabina-no-17-cavatina-hrabiny.krn
!!!cenid: 18xx:4108
!!!COM: Moniuszko, Stanisław
!!!COM-rismID: pe30008351
!!!CDT: 1819/05/05-1872/06/04
!!!CNT: Polish
!!!OPR: Hrabina
!!!OTL: No. 17. Cavatina Hrabiny
!!!OMV: 021
!!!PDT:
!!!AGN: Secular; Opera
!!!YEC: Copyright 2022 Narodowy Instytut Fryderyka Chopina (https://polishscores.org)
!!!YEM: License CC-BY-4.0 (https://creativecommons.org/licenses/by/4.0)
!!!SMS-siglum: PL-Wumfc
!!!SMS-shelfmark: N53446
!!!SMS-shelfwork: 001-021 M
!!!SMS-variant:
!!!SMS-altvar:
!!!NIFC-rismSourceID: 1001165649
!!!NIFC-rismChildID: 1001165649
!!!NIFC-islandoraID: pl-wumfc:6884
!!!URL-pdf-islandora: https://repozytorium.nifc.pl/islandora/object/pl-wumfc%3A6884/datastream/PDF/view
!!!URL-scan: https://polish.musicsources.pl/pl/lokalizacje/galeria/druki-muzyczne/12579 @EN{Scan on Polish Music Sources Website} @PL{Skany w portalu Dziedzictwo Muzyki Polskiej w otwartym dostępie}
!!!IIIF:
!!!ONB-nifc:
!!!AIN: 1 piano
!!!key: D
**kern	**kern	**text	**dynam
*part1	*part1	*	*
*staff2	*staff1	*	*
*I"[Piano.]	*I"[Piano.]	*	*
*Ipiano	*Ipiano	*	*
*ICklav	*ICklav	*	*
*clefF4	*clefG2	*	*
*k[f#c#]	*k[f#c#]	*	*
*D:	*D:	*	*
*M4/4	*M4/4	*	*
*met(c)	*met(c)	*	*
=1	=1	=1	=1
!!LO:TX:B:a:t=Allegro.
!	!LO:TX:t=P:problem:cały tekst zapisany ponad pięciolinią	!	!
8D 8AA 8FF# 8DD/	8ddd 8aa 8ff# 8dd\	.	sf
8F#L 8D\	8dL 8A< 8F#</	.	p
8F# 8D\	8d 8A< 8F#</	.	.
8F#J 8D\	8dJ 8A< 8F#</	.	.
8F# 8D\	8d 8A< 8F#</	.	.
!	!	!	!LO:HP:b:t=cre-scen-do:ext2=ud
8AL 8D\	8f#L 8d/	On	<
8A 8D\	8.g 8.e/	tu	.
8AJ 8D\	.	.	.
.	16eJk 16c#/	przy-	.
=2	=2	=2	=2
*	*^	*	*
8F#L 8D\	2a/	8d\L	-by-	.
8A 8F# 8D\	.	8d\	.	.
8A 8F# 8D\	.	8d\	.	.
8AJ 8F# 8D\	.	8d\J	.	.
8A 8F# 8D\	8a/	8d\L	-wa!	.
8D\L	8a/L	8f# 8d\	wiem	.
8D\	8.b/	8g 8d\	nie-	.
8BJ 8D\	.	8d\J	.	.
.	16g/Jk	.	-za-	.
!!LO:LB:g=original
=3	=3	=3	=3	=3
8AL 8D\	(2dd/	8f#L 8d\	-wod-	.
8A 8F# 8D\	.	8d\	.	.
8A 8F# 8D\	.	8d\	.	.
8AJ 8F# 8D\	.	8d\J	.	.
8A 8F# 8D\	8f#/)	8d\	-nie,	[
8AL 8AA/	8aL 8f# 8d/	8ryy	jak-	<
8F# 8FF#/	8dd 8a 8d/	8ryy	-żem	.
8DJ 8DD/	8ff#J 8dd 8a 8f#/	8ryy	szczęś-	[
=4	=4	=4	=4	=4
8AA 8AAA/	(4.aa 4.ff# 4.dd 4.a\	4.ryy	-li-	f
16f#LL 16d\	.	.	.	.
16A\JJ	.	.	.	.
8f# 8d\	.	.	.	.
8A\	8ff# 8a\	8ryy	.-wa!	.
!	!LO:TX:i:b:t=più lento	!	!	!
8AA'\L	8.dd/L	4f#\	uj-	.
(8A\	.	.	.	.
.	32ee/LL	.	.	.
.	32dd/JJJ	.	.	.
8e\	8.cc#/L	4g\	-rzę	.
8A\J)	.	.	.	.
.	16ee/Jk)	.	go	.
=5	=5	=5	=5	=5
8D 8DD/	[2dd/	[2f#\	znów!	.
8A\L	.	.	.	.
8F#\	.	.	.	.
8A\J	.	.	.	.
8d\	8dd/]	8f#\]	.	.
8r	(8f#/L	8ryy	.	.
4r	8a/	4ryy	.	.
.	8ff#/J)	.	.	.
!!LO:LB:g=original
=6	=6	=6	=6	=6
*ped	*	*	*	*
8AA'\L	(2ee/	(2g\	.	.
8A'\	.	.	.	.
8c#'\	.	.	.	.
*Xped	*	*	*	*
8A'\J	.	.	.	.
8d 8A 8D\	8dd/)	8f#\)	.	.
(8F#/L	(8d/L	4.d\	.	.
8D/	8f#/	.	.	.
8BB/J)	8dd/J)	.	.	.
=7	=7	=7	=7	=7
*^	*^	*	*	*
*ped	*	*	*	*	*	*
8FF#'\L	2ryy	(2cc#/	2ryy	(<2e\	.	.
8F#'\	.	.	.	.	.	.
8A#X'\	.	.	.	.	.	.
*Xped	*	*	*	*	*	*
8F#'\J	.	.	.	.	.	.
8r	4.GG\	8b/L)	8ryy	8d\)	.	.
*	*	*	*Xtuplet	*	*	*
*	*	*	*cue	*	*	*
8D/L	.	8b/	24b/L	8d\L	.	.
.	.	.	24cc#/	.	.	.
.	.	.	24b/J	.	.	.
*	*	*	*Xcue	*	*	*
*	*	*	*tuplet	*	*	*
8E/	.	8a#X/	4ryy	8c#\	.	.
8E#X/J	8GG#X\	8b/J	.	8d\J	.	.
*	*	*v	*v	*	*	*
=8	=8	=8	=8	=8	=8
(8F#/L	2AA\	(2dd/	(8d\L	.	.
8A/J	.	.	8f#\J)	.	.
8F#/L	.	.	4d\	.	.
8D/J)	.	.	.	.	.
8A/	8AA\	8f#/)	8d\	.	.
8r	8r	8a/L	8r	.	.
8E;/L	4AA\	8.g;/	4c#\	.	.
8G/J	.	.	.	.	.
.	.	16e/Jk	.	.	.
*v	*v	*	*	*	*
*	*v	*v	*	*
!!LO:LB:g=original
=9	=9	=9	=9
!	!LO:TX:B:a:t=Tempo I.	!	!
8F# 8D\	2d/	.	.
8AL 8F# 8D\	.	.	.
8A 8F# 8D\	.	.	.
8AJ 8F# 8D\	.	.	.
8AL 8D\	4f#/	.	p
8A 8D\	.	.	.
8B 8E 8D\	8.g#X/L	.	.
8G#XJ 8E 8D\	.	.	.
.	16e/Jk	.	.
=10	=10	=10	=10
*	*^	*	*
8AL 8C#\	4.a/	8e\L	.	.
8A\	.	8e 8c#\	.	.
!	!	!	!	!LO:HP:b:t=cre-scen-do:ext2=ud
8A\	.	8e 8c#\	.	<
8AJ 8C#\	8a/	8e\J	.	.
8AL 8D\	(4b/	8fnL 8d\	.	.
8A\	.	8f 8d\	.	.
8A 8Fn\	8a#X/L)	8d\	.	.
8AJ 8D\	8b/J	8fJ 8d\	.	.
=11	=11	=11	=11	=11
8AL 8C#\	4.ee/	8e\L	.	.
8A\	.	8e\	.	.
8A 8E\	.	8e\	.	.
8AJ 8C#\	8ee/	8aJ 8e\	.	.
8AL 8D 8Cn\	(4ff#X/	8aL 8f#\	.	.
8A 8D 8C\	.	8dd 8f#\	.	.
8A 8D 8C\	8ee/L)	8g\	.	[
8AJ 8D 8C\	8ff#/J	8aJ 8f#\	.	.
!!LO:PB:g=original
=12	=12	=12	=12	=12
8GL 8D 8BB\	(4gg;/	8g\L	.	f
8G 8D 8BB\	.	8g\	.	.
8GJ 8D 8BB\	32gg/LLL	8g\J	.	.
.	32ff#/	.	.	.
.	32ee/	.	.	.
.	32dd/	.	.	.
8r;	32ccn/	8r;	.	.
.	32b/	.	.	.
.	32a/	.	.	.
.	32g/JJJ	.	.	.
2A 2BB#X\	8f#/)	2d#X\	.	p
.	(<24f#/LL	.	.	.
.	24g#X/	.	.	.
.	24f#/JJ	.	.	.
.	8e#X/L)	.	.	.
.	8f#/J	.	.	.
=13	=13	=13	=13	=13
*^	*	*	*	*
!	!	!LO:TX:i:a:t=rallent.	!	!	!
(4A/	(2C#\	[2cc#/	8f#\L	.	.
.	.	.	8c#\	.	.
8G#X/L	.	.	8e#X\	.	.
8B/J	.	.	8g#X\J	.	.
16A/)	16F#\)	16cc#/]	16a 16f#\	.	.
16r;	16ryy	16r;	16ryy	.	.
!	!	!LO:TX:i:a:t=più lento	!	!	!
(8F#\L	4ryy	(8f#\L	8ryy	.	<
8A\J)	.	8a\	8ryy	.	.
8r	8ryy	8ff#J 8f#\)	8ryy	.	[
*v	*v	*	*	*	*
*	*v	*v	*	*
!!LO:LB:g=original
=14	=14	=14	=14
*ped	*	*	*
8AA 8AAA/	(>2ee 2gn 2en/	.	f
(8A\L	.	.	.
8c#\	.	.	.
*Xped	*	*	*
8A\J)	.	.	.
8BB/	8dd 8f# 8d/)	.	.
8D\L	8d/L	.	.
8F#\J	8f#/	.	.
8r	8ddJ 8d/	.	.
=15	=15	=15	=15
*^	*	*	*
*ped	*	*	*	*
!	!	!LO:TX:t=P:problem:brak wyświetlania środkowego łuku	!	!
8FF# 8FFF#/	2ryy	(2cc# (<2e (<2c#/	.	.
(8F#\L	.	.	.	.
8A#X\	.	.	.	.
*Xped	*	*	*	*
8F#\J)	.	.	.	.
.	8qGGG/	.	.	.
8r	(4.GG\	8b 8d) 8B/))	.	.
8D/L	.	8bL 8d/	.	.
.	.	16qqcc#/LL	.	.
.	.	16qqb/JJ	.	.
8E/	.	8a#X 8c#/	.	.
8E#X/J	8GG#X\)	8bJ 8d/	.	.
=16	=16	=16	=16	=16
*	*	*^	*	*
*ped	*	*	*	*	*
8F#L 8AAn\	2ryy	(2dd/	8d\	.	.
8a> 8f#> 8d>'>\	.	.	8ryy	.	.
8f#> 8d> 8A'>\	.	.	4ryy	.	.
*Xped	*	*	*	*	*
8dJ 8A 8F#\	.	.	.	.	.
8AA'/	8ryy	8f#L 8d/)	4ryy	.	.
8r	8ryy	8a/J	.	.	.
8.E;/L	4AA\	8.g;/L	4c#\	.	sf
16G/Jk	.	16e/Jk	.	.	.
*	*	*v	*v	*	*
!!LO:LB:g=original
=17	=17	=17	=17	=17
8F#/	8D\	8d/	.	.
8dd>\L	8ryy	(>8ff#/L	.	pp
8cc#>\	4ryy	8aa 8ee/	.	.
8b>\J	.	8dd/J	.	.
8a>\L	2ryy	8ff#/L	.	.
8g>\	.	16b/L	.	.
.	.	16cc#JJ 16b-X/	.	.
8f#>\	.	16ee/LL	.	.
.	.	16dd/	.	.
8fn>\J	.	16a/	.	.
.	.	16bnJJ 16a-X/	.	.
*v	*v	*	*	*
=18	=18	=18	=18
*	*^	*	*
8e>\	8ccnL 8g/	2ryy	.	.
(8f#>L 8d#X>\	16b/L	.	.	.
.	16an/JJ	.	.	.
8e>\J)	8g/L	.	.	.
(8c#XL 8A#X\	16f#/L	.	.	.
.	16e/JJ	.	.	.
8B\J)	16dn/LL	4ryy	.	.
.	16f#/	.	.	.
8B 8G\	16g/	.	.	.
.	16ee/JJ	.	.	.
4A# 4D\	8.dd/L	4f#^\	.	.
.	32ccn/LL	.	.	.
.	32an/JJJ	.	.	.
*	*v	*v	*	*
*kcancel	*kcancel	*	*
!!LO:LB:g=original
=19||	=19||	=19||	=19||
*k[f#]	*k[f#]	*	*
*	*^	*	*
!!LO:TX:B:a:t=Moderato.
8GG\L	8g/	8g\)	.	.
8B 8G\	8r	8ryy	.	.
8B 8G\	4r	4ryy	.	.
8BJ 8G\	.	.	.	.
8BL 8G\	8r	8ryy	.	.
8B 8G\	(8d/	8ryy	.	.
8d 8B 8G\	8g/L	8ryy	.	.
8dJ 8B 8G\	8b/J	8ryy	.	.
*	*v	*v	*	*
=20	=20	=20	=20
8dL 8B 8G\	4.dd\	.	.
8d 8B 8G\	.	.	.
8d 8B 8G\	.	.	.
8dJ 8B 8G\	8gg\	.	.
8eL 8c 8A 8G\	8ee\L	.	.
8e 8c 8A 8G\	8dd\	.	.
8f# 8c 8A 8G\	8cc\	.	.
8f#J 8c 8A 8G\	8a\J)	.	.
=21	=21	=21	=21
8BL 8G\	(8g/L	.	.
8B 8G\	8dd/J)	.	.
8BJ 8G\	8d/	.	.
8F# 8D\	8d 8A</	.	.
8D-X\L	8e-XL 8B-X< 8G</	.	.
8C\	8en 8B-< 8G</	.	.
8E-X\	8fn 8c 8A</	.	.
8Dn\J	8f#XJ 8c 8A</	.	.
!!LO:LB:g=original
=22	=22	=22	=22
*	*^	*	*
8G 8GG/	(4.g/	8B\	.	.
8dL 8B 8G\	.	4ryy	.	.
8d 8B 8G\	.	.	.	.
8dJ 8B 8G\	8gg\)	8ryy	.	.
*	*tuplet	*	*	*
!	!LO:TUP:a:problem:pierwsza triola oznaczona cyfrą, pozostałe bez oznaczenia	!	!	!
!	!LO:TX:i:b:t=rallent.	!	!	!
(2c 2A 2G\	(24ff#\LL	2ryy	.	.
.	24gg\	.	.	.
.	24ee\J	.	.	.
*	*Xtuplet	*	*	*
.	24dd\L	.	.	.
.	24ee\	.	.	.
.	24cc\J	.	.	.
.	24b\L	.	.	.
.	24cc\	.	.	.
.	24a\J	.	.	.
.	24b\L	.	.	.
.	24e\	.	.	.
.	24f#\JJ	.	.	.
=23	=23	=23	=23	=23
8B 8G\)	8g/)	2ryy	.	.
(8G\L	8gL 8B/	.	.	.
8qB/	.	.	.	.
8A^\	8g 8d/	.	.	.
8G\J)	8gJ 8B/	.	.	.
!	!LO:TX:i:a:t=risoluto	!	!	!
2BB/	4g/	8r	.	.
.	.	8fnL 8d\	.	.
.	8qb/	.	.	.
.	8a/L	8f 8d\	.	.
.	8g/J	8fJ 8d\	.	.
!!LO:PB:g=original
=24	=24	=24	=24	=24
*^	*	*	*	*
8C/	2ryy	2ee/	8r	.	.
(8c\L	.	.	8gL 8e\	.	.
8qe/	.	.	.	.	.
8d^\	.	.	8g 8e\	.	.
8c\J)	.	.	8gJ 8e\	.	.
8ryy	2B-X\	8dd/L	8r	.	.
.	.	8qee/	.	.	.
(8d/L	.	(16dd/L	8g#X\L	.	.
.	.	16cc#X/JJ	.	.	.
8qfn/	.	.	.	.	.
8e/	.	8dd/L	8g#\	.	.
8d/J)	.	8ee/J)	8g#\J	.	.
=25	=25	=25	=25	=25	=25
8AA/	2ryy	(4dd/	8r	.	.
(8A\L	.	.	8aL 8e\	.	<
8qc#X/	.	.	.	.	.
8Bn\	.	4cc#X/)	8a 8e\	.	[ >
8A\J)	.	.	8aJ 8e\	.	]
8r	2C#X\	8r	8r	.	.
!	!	!	!	!	!LO:HP:a
!	!	!	!	!	!LO:DY:a
8A/L	.	8a/L	8gnL 8e\	.	f <
.	.	8qcc#/	.	.	.
!	!	!	!	!	!LO:HP:a
8A/	.	8b/	8g 8e\	.	[ >
8A/J	.	8a/J	8gJ 8e\	.	]
!!LO:LB:g=original
=26	=26	=26	=26	=26	=26
8D\	2ryy	2ff#/	8r	.	.
(8d\L	.	.	8aL 8f#\	.	<
8qf#/	.	.	.	.	.
8e\	.	.	8a\	.	[ >
8d\J)	.	.	8aJ 8f#\	.	]
8ryy	2cn^>\	8ee/L	8r	.	.
.	.	8qff#/	.	.	.
(8e/L	.	(16ee/L	8a#X\L	.	<
.	.	16dd#X/JJ	.	.	.
8qg/	.	.	.	.	.
8fn/	.	8ee/L	8a#\	.	[ >
8e/J)	.	8ff#/J)	8a#\J	.	]
=27	=27	=27	=27	=27	=27
8r	1BB	[2dd#X/	8b\L	.	]
(8F#/L	.	.	8f#\	.	.
8B/	.	.	8d#X\	.	.
8F#/J	.	.	8f#\J	.	.
8B/L	.	8dd#/L]	8d#\L	.	.
8An/	.	8dd#/	8f#\J	.	.
8G#X/	.	8.ee/	8e\L	.	.
8Gn/J)	.	.	8e\J	.	.
.	.	16b/Jk	.	.	.
=28	=28	=28	=28	=28	=28
8r	2BB\	[2ddn/	(8d\L	.	.
(8F#/L	.	.	8f#\	.	.
8B/	.	.	8d\	.	.
8F#/J)	.	.	8f#\J)	.	.
8DD/	2ryy	8dd/]	2f# 2c^\	.	.
(8D\L	.	16ee/LL	.	.	.
.	.	16dd/J	.	.	.
8A\)	.	8.cc/	.	.	.
8D'\J	.	.	.	.	.
.	.	16a/Jk	.	.	.
*v	*v	*	*	*	*
*	*v	*v	*	*
!!LO:LB:g=original
=29	=29	=29	=29
8G 8D 8GG/	8g 8B/	.	.
!	!	!	!LO:HP:a
8GL 8D 8GG/	(8dL 8B/	.	<
8G 8D 8GG/	8d 8B/	.	.
8GJ 8D 8GG/	8g/J	.	.
8G 8D 8GG/	8b\L)	.	.
8dL 8B 8G\	8dd'\	.	.
8d 8B 8G\	8gg'\	.	.
8dJ 8B 8G\	8bbJ 8b'\	.	[[
=30	=30	=30	=30
8dL 8B 8G\	(4.ddd 4.dd\	.	.
8d 8B 8G\	.	.	.
8d 8B 8G\	.	.	.
8dJ 8B 8G\	8ggg 8gg\)	.	.
8eL 8c 8A 8G\	8.eeeL 8.ee^\	.	>
8eJ 8c 8A 8G\	.	.	.
.	16dddK 16dd\	.	.
8f#L 8c 8A 8G\	8ccc 8cc'\	.	.
8f#J 8c 8A 8G\	8aaJ 8a'\	.	]]
=31	=31	=31	=31
8gL 8d 8B 8G\	(8gg\L	.	.
8g 8d 8B 8G\	8ddd\J)	.	.
8g 8d 8B 8G\	4dd\	.	.
8dJ 8B 8G\	.	.	.
8dL 8c 8G\	8r	.	.
8d 8c 8G\	(8d/	.	.
8d 8B 8G\	8g/L	.	.
8dJ 8B 8G\	8b/J)	.	.
!!LO:LB:g=original
=32	=32	=32	=32
*ped	*	*	*
!	!LO:TX:t=P:problem:spiccato u dołu	!	!
8GG/	(4dd 4b 4d^^</	.	.
!	!	!	!LO:HP:b=2
8dL 8B 8G\	.	.	<
8d 8B 8G\	8g\L	.	.
*Xped	*	*	*
8dJ 8B 8G\	8gg\J	.	[
*	*tuplet	*	*
!	!LO:TUP:a:problem:pierwsza triola oznaczona cyfrą, pozostałe bez oznaczenia	!	!
2c 2A 2G;\	24ff#\LL	.	sf
.	24aa\	.	.
.	24gg\J	.	.
*	*Xtuplet	*	*
.	24dd#X\L	.	.
.	24ff#\	.	.
.	24ee\J	.	.
.	24b\L	.	.
.	24ddn\	.	.
.	24cc\J	.	.
.	24a\L	.	.
.	24.e;\	.	.
.	48f#\JJk	.	.
=33	=33	=33	=33
*	*^	*	*
!	!LO:TX:i:a:t=a tempo	!	!	!
8B 8G\	2g/)	8r	.	.
(8G\L	.	8dL 8B\	.	<
8qB/	.	.	.	.
8A\	.	8d 8B\	.	[ >
8G\J)	.	8dJ 8B\	.	]
(2BB/	4g/	8r	.	.
!	!	!	!	!LO:HP:a
.	.	8fnL 8d\	.	<
.	8qb/	.	.	.
!	!	!	!	!LO:HP:a
.	8.a/L	8f 8d\	.	[ >
.	.	8fJ 8d\	.	.
.	16g/Jk	.	.	]
!!LO:LB:g=original
=34	=34	=34	=34	=34
*^	*	*	*	*
8C/)	2ryy	4.ee/	8r	.	.
(8c\L	.	.	8gL 8e\	.	<
8qe/	.	.	.	.	.
8d\	.	.	8g 8e\	.	[ >
8c\J)	.	8ee/	8gJ 8e\	.	]
8ryy	2B-X\	8dd/L	8r	.	.
.	.	8qee/	.	.	.
(8d/L	.	16dd/L	8g#X\L	.	<
.	.	16cc#X/JJ	.	.	.
8qfn/	.	.	.	.	.
8e/	.	8dd/L	8g#\	.	[ >
8d/J)	.	8ee/J	8g#\J	.	]
=35	=35	=35	=35	=35	=35
8AA/	2ryy	(4dd/	8r	.	.
(8A\L	.	.	8aL 8e\	.	<
8qcn/	.	.	.	.	.
8B-X\	.	4cc#X/)	8a 8e\	.	[ >
8A\J)	.	.	8aJ 8e\	.	]
8r	2C#X\	8r	8r	.	.
!	!	!	!	!	!LO:HP:a
8A/L	.	8an/L	8gL 8e\	.	<
!	!	!	!	!	!LO:HP:a
8A/	.	8.bn/	8g 8e\	.	[ >
8A/J	.	.	8gJ 8e\	.	.
.	.	16a/Jk	.	.	]
*v	*v	*	*	*	*
=36	=36	=36	=36	=36
8D\L	2ffn/	8r	.	.
8d\	.	8aL 8fn\	.	.
8d\	.	8a 8f\	.	.
8d\J	.	8aJ 8f\	.	.
8Cn\L	8ee-X/	8r	.	.
.	8qff/	.	.	.
8c\	(16ee-/LL	8aL 8f\	.	.
.	16dd/JJ	.	.	.
8c\	8ee-/L	8a 8f\	.	.
8c\J	8ff/J)	8aJ 8f\	.	.
!!LO:PB:g=original
=37	=37	=37	=37	=37
*^	*	*	*	*
8r	2BB-X\	4dd/	8d\L	.	.
(8Fn/L	.	.	8fn\	.	.
!	!	!LO:N:vis=4	!	!	!
8B-X/	.	4.r	8b-X 8d\	.	.
8F/J)	.	.	8f\J	.	.
(8B-/L	4BB-\	.	8d\L	.	.
8F/J)	.	8dd/L	8f\	.	.
8qFFn/	.	.	.	.	.
(8A\L	4ryy	8.ffn/	8e-X\	.	.
8F\J)	.	.	8f\J	.	.
.	.	16cc/Jk	.	.	.
=38	=38	=38	=38	=38	=38
!	!	!	!	!	!LO:HP:a
8B-XL 8Fn/	2BB-X\	[2dd/	8b-XL 8d\	.	>
8D/	.	.	8fn\	.	.
8Fn/	.	.	8a\	.	.
8D/J	.	.	8f\J	.	]
!	!	!	!	!	!LO:DY:a
4En 4EEn/	2ryy	8dd/L]	8g#X\L	.	p
.	.	8dd/	8e\J	.	.
4Bn 4E\	.	8.ee;/	8g#\L	.	.
.	.	.	8e\J	.	.
.	.	16bn/Jk	.	.	.
*v	*v	*	*	*	*
*	*v	*v	*	*
=39	=39	=39	=39
8E 8AA/	8cc#X 8a 8e/	.	.
8C#XL 8AA\	8A<L 8E</	.	.
8D 8AA\	8B< 8F#X</	.	.
8EJ 8AA\	8c#X<J 8Gn</	.	.
8FnL 8AA\	8dL 8A</	.	.
!	!	!	!LO:HP:b:t=cre-scen-do:ext2=ud
8F#X 8AA\	8d#X 8cn 8A</	.	<
8G 8AA\	8e 8B/	.	.
8G#XJ 8AA\	8e#XJ 8dn 8B/	.	.
!!LO:LB:g=original
=40	=40	=40	=40
8AL 8AA\	8f#L 8d/	.	.
8Gn 8AA\	8g 8B/	.	.
8Fn 8AA\	8g#X 8d/	.	.
8EJ 8AA\	8aJ 8c#X/	.	.
8GL 8AA\	8a#XL 8e/	.	.
8F#X 8AA\	8b 8d#X/	.	.
8A 8AA\	8ccn 8f#/	.	[
8GJ 8AA\	8cc#XJ 8a# 8e/	.	.
=41||	=41||	=41||	=41||
*k[f#c#]	*k[f#c#]	*	*
!!LO:TX:B:a:t=Allegro.
8F# 8DD/	8dd 8a 8d/	.	sff
8F#L 8D\	8dL 8A/	.	p
8F# 8D\	8d 8A/	.	.
8F#J 8D\	8dJ 8A/	.	.
8F# 8D\	8d 8A/	.	.
8AL 8D\	8f#L 8d/	.	.
8A 8D\	8.g 8.e/	.	.
8AJ 8D\	.	.	.
.	16eJk 16c#/	.	.
=42	=42	=42	=42
*	*^	*	*
8F#L 8D\	2a/	8d\L	.	.
8A 8F# 8D\	.	8d\	.	.
8A 8F# 8D\	.	8d\	.	.
8AJ 8F# 8D\	.	8d\J	.	.
8A 8F# 8D\	8a/	8d\L	.	.
8F#L 8D\	8a/L	8d\	.	.
8G 8D\	8.b/	8d\	.	.
8BJ 8D\	.	8d\J	.	.
.	16g/Jk	.	.	.
!!LO:LB:g=original
=43	=43	=43	=43	=43
8AL 8D\	(2dd/	8f#\L	.	.
8A 8F# 8D\	.	8d\	.	.
8A 8F# 8D\	.	8d\	.	.
8AJ 8F# 8D\	.	8d\J	.	.
8A 8F# 8D\	8f#/)	8d\	.	.
8A\L	8aL 8f# 8d/	8ryy	.	<
8F#\	8dd 8a 8d/	8ryy	.	.
8D\J	8ff#J 8dd 8a 8f#/	8ryy	.	[[
=44	=44	=44	=44	=44
*ped	*	*	*	*
8AA 8AAA/	(4.aa 4.ff# 4.dd 4.a\	4.ryy	.	f
16f#LL 16d\	.	.	.	.
16A\JJ	.	.	.	.
8f# 8d\	.	.	.	.
*Xped	*	*	*	*
8A\	8ff# 8a\	8ryy	.	.
8AA'\L	8.dd/L	4f#\	.	.
(8A\	.	.	.	.
.	32ee/LL	.	.	.
.	32dd/JJJ	.	.	.
8e\	8.cc#/L	4g\	.	.
8A\J)	.	.	.	.
.	16ee/Jk)	.	.	.
=45	=45	=45	=45	=45
8D 8DD/	[2dd/	[2f#\	.	.
8A\L	.	.	.	.
8F#\	.	.	.	.
8A\J	.	.	.	.
8d\	8dd/]	8f#\]	.	.
8r	(8f#\L	8ryy	.	.
4r	8a\	8ryy	.	.
.	8ff#\J)	8ryy	.	.
!!LO:LB:g=original
=46	=46	=46	=46	=46
*ped	*	*	*	*
8AA'\L	(2ee/	(2g\	.	.
8A'\	.	.	.	.
8c#'\	.	.	.	.
8A'\J	.	.	.	.
*Xped	*	*	*	*
8d 8A 8D\	8dd/)	8f#\)	.	.
!	!LO:N:vis=8.	!	!	!
(8F#\L	(>8d/L	8ryy	.	.
8D\	8f#/	8ryy	.	.
8BB\J)	8dd/J)	8ryy	.	.
=47	=47	=47	=47	=47
8FF#\L	(2cc#/	(2e\	.	.
8F#\	.	.	.	.
8A#X\	.	.	.	.
8F#\J	.	.	.	.
8B 8BB\	8b/)	8d\)	.	.
8d\L	8b/L	8f#\L	.	.
8c#\	8a#X/	8e\	.	.
8B\J	8b/J	8d\J	.	.
=48	=48	=48	=48	=48
(2c# 2F#\	[2ff#/	2a#X\	.	.
!	!LO:TX:t=P:problem:błędne wyświetlanie łuku	!	!	!LO:DY:a
4B 4G\	(<32ff#/LLL]	4b\	.	pp
.	32ffn/	.	.	.
.	32ee/	.	.	.
.	32ee-X/	.	.	.
.	32dd/	.	.	.
.	32cc#/	.	.	.
.	32ccn/	.	.	.
.	32b/	.	.	.
4e#X 4B 4G#X\	32b-X/	4ryy	.	.
.	32an/	.	.	.
.	32a-X/	.	.	.
.	32g/	.	.	.
.	32f#/	.	.	.
.	32fn/	.	.	.
.	32en/	.	.	.
.	32e-X/JJJ	.	.	.
!!LO:LB:g=original
=49	=49	=49	=49	=49
8f# 8A\)	8d/)	2ryy	.	.
8r	8r	.	.	.
4r	(8.dd\L	.	.	f
.	32ee\LL	.	.	.
.	32dd\JJJ	.	.	.
*ped	*	*	*	*
2A 2E 2AA\	8cc#/	2g^\	.	.
.	(4.aa;/)	.	.	.
*	*v	*v	*	*
=50	=50	=50	=50
*Xped	*	*	*
8A 8F# 8D\	8dd 8d/)	.	.
8dL 8D\	8ddL 8a 8f#\	.	ff
8A 8AA\	8ff# 8dd 8a\	.	.
8F#J 8FF#\	8aaJ 8ff# 8dd\	.	.
8D 8DD/	8ddd 8aa 8ff# 8dd\	.	.
8r	8r	.	.
8d 8A 8D\	8ff# 8dd 8a 8f#\	.	.
8r	8r	.	.
=51	=51	=51	=51
*^	*	*	*
[2A [2F# [2D;/	[2DD\	[2d;/	.	.
8A] 8F#] 8D/]	8DD\]	8d/]	.	.
8r	8ryy	8r	.	.
4r	4ryy	4r	.	.
*v	*v	*	*	*
==	==	==	==
*-	*-	*-	*-
!!!system-decoration: {(p1)}
!!!RDF**kern: > = above
!!!RDF**kern: < = below
!!!ENC: Berenika Jozajtis
!!!END: 2022-08-23
!!!ENC: Kamil Watkowski
!!!END: 2022-09-29
